X:18
T:ESSENCE OF OLD VIRGINNY.
B:Coles pg. 24.2
Z:John B. Walsh, 5/8/2002 <walsh:mat:h.ubc.ca>
M:6/8
L:1/8
K:G
u"Slow"D S|{F}E2D G2A|{B}d3-d2"4"e|d2B A2G|{E}G3-G2 D|
{F}E2D G2A|B2c ^c2d|fed cBA|1 G2 z ">"[g2B2]:|2 G2z ">"[g2B2]||
ud|g2b a2g|{e}g3-g2 e|d2B A2G|{E}G3-G2 d|
g2b a2g|e2fg2d|fed cBA|1 G2z ">"[g2B2D2]:|2 G3-G2 "D.S."D S||
